X:1
T:Merry-go-Round of Life
%%score 1 2
L:1/8
Q:1/4=110
M:3/4
K:Bb
V:1 treble nm="Flauta Transversal" snm="Fl."
V:2 treble transpose=-14 nm="Saxofone Tenor" snm="Sax. Tn."
V:1
 d'e' d'e' d'e' | c'd' c'd' c'd' | bc' bc' bc' |"^rit." a/g/ ^f4- f | z2 z4 | z6 |!ff! D2 G2 B2 | %7
 d4 d2 | c2 B2 A2 | B4- B2 | G2 B2 d2 | g4 g2 | g2 f2 e2 | f4- f2 | A2 d2 f2 | a4 g2 | f2 =e2 f2 | %17
 g4 f2 | =e4 d2 | c2 B2 c2 | d2 c2 G2 |!>(! A4- A2-!>)! | A6 | z2 z2 !fermata!^f'2 | z6 | z6 | z6 | %27
 z6 |!mp!"^legato" z2 g2 g2 | z2 g2 g2 | z2 g2 g2 | D2 B2 d2 | c2 f2 f2 | F2 e2 e2 | G2 d2 d2 | %35
 G2 d2 d2 | c2 e2 e2 | F2 e2 e2 | B2 A2 A2 | F2 B2 c2 | e2 d2 d2 | A2 g2 a2 | d2 B2 B2 | c2 g2 g2 | %44
 A2 f2 f2 | A2 A2 B2 | c6 |!ff! d2 g2 b2 | d'4 d'2 | c'2 b2 a2 | b6 | g2 b2 d'2 | g'4 g'2 | %53
 g'2 a'2 f'e' | f'6 | a2 d'2 f'2 | a'4 g'2- | g'2 f'=e' _e'=e' | g'4 f'2- | f'2 =e'd' ^c'd' | %60
 d'2 c'd' c'b | a3 =b ^c'2 | d'6- | d'6 | z4!>(! (d2 | =e2 ^f2 d2)!>)! |!mp! c2 g2 g2 | F2 e2 e2 | %68
 G2 f2 f2 | A2 d2 d2 | c2 A2 A2 | F2 e2 e2 | B2 G2 G2 | G2 z2!f! d2 | (3d=ed ^c2 d2 | f2 =e2 d2 | %76
 ^c4 =e2 | A4 A2 | f4 f2 | f2 =e2 d2 | ^c6 |!mp! A4 A2 | B4 B2 | d4 d2 | f4 f2 | d4 d2 | c4 c2 | %87
 c4 c2 | f4 f2 | c4 c2 |!f! =e2 ^d2 e2 | g2 f2 =e2 | d2 ^c2 d2 | =e4 a2 | c'4 b2 | a4 g2 | %96
 ^fa (3(c'd'c') b2 | z2 (3(bc'b) a2 | z2 (3(gag) ^f2- | !fermata!f6 |!f! .G.c .e .g2 .g | %101
 .f.e .d .e3 | .c.e .g .c'2 .c' | .c'.b ._a .b3 |!p! .d.g .b .d'2 .c' | .b.a .b .c'2 .b | %106
 .a.g .^f .g2 .g | .g.f .c .d3 |!f! .G.c .e .g2 .g | .f.e .d .e3 | .c.e .g .c'2 .c' | %111
 .c'.b ._a .b3 |!ff! .d.g .b .d'2 .c' | .b.a .b .c'2 .b | .a.g .^f.g .=f.e | .d.=e .^f g3- | g6- | %117
 g6 |"^Maestoso" e2 ^g2 =b2- | !>!b2 z (=E Ac) |!fff! !tenuto!=e4 !tenuto!e2 | (d2 c2 =B2) | c6 | %123
 (A2 c2 =e2) | !tenuto!a4 !tenuto!a2 | (a2 g2 f2) | g6 | (=B2 =e2 g2) | (=b4 a2) | (g2 ^f2 g2) | %130
 (a4 g2) | (^f4 =e2) | (d2 c2 d2) | (=e2 d2 A2) | =B6 | =E2 A2 c2 | =e4 e2 | d2 c2 =B2 | c6 | %139
 A2 c2 =e2 | a4 a2 | a2 =b2 gf | g6 | (=B2 =e2 g2) |!ff! =b4 a2- | a z (g^f) (=f^f) | a4 g2- | %147
 g z (^f=e) (^de) | =e'2 (d'e' d'c') | (=b3 ^c' ^d'2) |!mf! =e'6- | e'6- | e'6- | e'2 z4 | z2 z4 | %155
!ff! (a3 g =e2) | (^d3 ^c ^f2- | f4) .B2 | ^G2 .=B2 .=e2 | =B2 .=e2 .=b2 |!<(! =E^D E^F ^Gc | %161
 =B^A B^d =E^F | ^G^F G=B c^d!<)! | z2 z2 .e'2 | !fermata!=e'6 |] %165
V:2
[K:C] c'd' c'd' c'd' | bc' bc' bc' | ab ab ab | ^g/f/ e4- e | EB e^g e'2- | e'6 |!ff! E2 A2 A2 | %7
 c4 c2 | B2 A2 ^G2 | A4- A2 | A2 c2 c2 | f4 f2 | f2 e2 d2 | e4- e2 | B2 e2 e2 | g4 ^f2 | e2 d2 e2 | %17
 ^f4 e2 | d4 c2 | B2 A2 B2 | c2 d2 A2 |!>(! B4- B2-!>)! | B6 | Ee ab !fermata!c'2 | %24
 z/ (b/4d'/4c'- c'2 b2) | z3/4 (d/4c- cB) (A^G) |!>(! F E2- E3- | E6!>)! |!f! A2 e2 e2 | E2 B2 B2 | %30
 A2 e2 e2 | E2 A2 c2 | e4 e2 | d2 c2 B2 | c6 | A2 c2 e2 | a4 a2 | a2 g2 f2 | g6 | B2 e2 g2 | %40
 b4 a2 | g2 ^f2 g2 | a4 g2 | ^f4 e2 | d2 c2 d2 | e2 d2 A2 | B6 | z6 |!mf! d2 f2 f2 | f2 g2 f2 | %50
 A2 e2 e2 | f2 a2 c'2 | d'2 f'2 f'2 | c'2 e'2 e'2 | g2 d'2 d'2 | g2 c'2 e'2 | d'4 e2 | c2 a2 a2 | %58
 d'4 e2 | c2 a2 a2 | c2 a2 a2 | g3 a b2 | b6 |!f! (^g2 a2 b2 | ^g2) z4 | z4!f! e2 | f4 e2 | %67
 d2 c2 B2 | c2 d2 e2 | G4 G2 | f4 e2 | d2 c2 d2 | e6- | e6 |!mp! B6 | e2 d2 c2 | B4 B2 | G4 G2 | %78
 e4 e2 | e2 d2 c2 | B6 |!mp!!<(! (^dB) (^cd) (^fa) | ^g4!<)! g2 | (^g2 a2 b2) | %84
 c'2!f! (3(g'^f'=f' (3e'^d'=d' | c'2) (3(c'b^a (3=a^g=g) | ^f4 f2 | (^f2 g2 a2) | %88
 b2!ff! (3(a^g=g (3^f=fe | d2) (3(d'^c'=c' (3b^a=a) |!mp! ^f2 =f2 ^f2 | a2 g2 ^f2 | e2 ^d2 e2 | %93
 d4 g2 | a4 f2 | g4 f2 | Be (3(bc'b) a2 | z2 (3(aba) ^g2 | z2 (3(f^gf) e2- | !fermata!e6 | %100
!f! .A.d .f .f2 .f | .g.f .e .f3 | .d.f .a .a2 .a | .d'.c' .^a .c'3 |!p! .e.a .c' .c'2 .b | %105
 .c'.b .c' .b2 .a | .b.a .^g .f2 .f | .a.g .d .e3 |!f! .A.d .f .f2 .f | .g.f .e .f3 | %110
 .d.f .a .a2 .a | .d'.c' .^a .c'3 |!ff! .e.a .c' .c'2 .b | .c'.b .c' .b2 .a | .b.a .^g.a .=g.f | %115
 .e.^f .^g a3- | a6- | a6 | F2 ^A2 ^c2- | !>!c6 |!f! !>!d2 (d'^c' d'e') | ^c'2 ^a2 a2 | %122
 !>!^f2 (b^a b^c') | ^f2 b2 b2 | d2 (ed eg) | B2 ^c2 c2 | ^c2 (dc d^f) | A2 ^f2 f2 | d2 ^f2 f2 | %129
 ^c2 f2 f2 | ^c2 ^f2 f2 | B2 .a.b .a.^g | A2 .^c'.d' .c'.b | ^G2 .^c'.d' .b.c' | %134
 (^f'g') .f'.e' .d'.^c' | (^f'e') .d'.^c' .b.^a | B2 .^c'.d' .c'.b | ^c2 ^f2 f2 | B2 ^f2 f2 | %139
 gb .b.^c' .b.^a | ^c2 ^f2 f2 | B2 ^f2 e2 | ^c'6 | (a2 ^c'2 ^f'2) |!mf! a'4 ^g'2- | g' z .B2 .B2 | %146
 ^g'4 ^f'2- | f' z .A2 .A2 | A2 .d2 .d2 | (e3 ^f ^g2) |!f! z2 (3(^c'b^a (3^g^f=f) | %151
 (3(^f'=f'^d' (3^c'b^a (3^g^f=f) | (3(^f'=f'^d' (3^c'b^a (3^g^f=f | ^f2) z4 | %154
!ff! (3(^f'^g'f' =f'2 ^f'2) | (^f'3 e' d'2) | (^c'3 ^d' f'2- | f'4) .c'2 | ^f'6- | f'6 | %160
!<(! ^F=F ^F^G ^Ad | ^c=c ^cf ^f^g | ^a^g a^c' d'f'!<)! | z2 z2 .a2 | !fermata!^a6 |] %165

